Costumes/saxophone-a.svg

<?xml version="1.0" encoding="UTF-8" standalone="no"?>
<svg
   version="1.1"
   width="136.56752"
   height="158.23616"
   viewBox="-1 -1 136.56752 158.23616"
   id="svg29"
   sodipodi:docname="saxophone-a.svg"
   xmlns:inkscape="http://www.inkscape.org/namespaces/inkscape"
   xmlns:sodipodi="http://sodipodi.sourceforge.net/DTD/sodipodi-0.dtd"
   xmlns="http://www.w3.org/2000/svg"
   xmlns:svg="http://www.w3.org/2000/svg">
  <defs
     id="defs33" />
  <sodipodi:namedview
     id="namedview31"
     pagecolor="#ffffff"
     bordercolor="#000000"
     borderopacity="0.25"
     inkscape:showpageshadow="2"
     inkscape:pageopacity="0.0"
     inkscape:pagecheckerboard="0"
     inkscape:deskcolor="#d1d1d1" />
  <!-- Exported by Scratch - http://scratch.mit.edu/ -->
  <g
     id="ID0.01297489507123828"
     transform="matrix(0.77378094,0,0,0.77378094,-1.5416467,-1.6265933)">
    <g
       id="ID0.3204571665264666">
      <path
         id="ID0.38248061342164874"
         fill="#fbd43f"
         d="m 282.3,272.1 c 0,0 -67.4,-181.6 -68.1,-182.9 -0.6,-1.3 -2.5,-3.2 -5.9,-3.3 -6.6,0.3 -11,3.8 -14.5,8.7 -4.6,5.5 -10.1,8.7 -16.2,10 l -2,-4.2 c 2.3,-0.5 4.8,-1.5 7.3,-3.3 4.1,-2.4 8.4,-7 12.9,-12.5 8.9,-7.7 17.7,-10.8 26,1.3 0,0 71.9,170 76.1,172.6 5.3,3.2 7.9,1.6 8.3,-4.3 -9.3,-21.1 -19.8,-43.7 -26,-70.1 -1.4,-8.5 -1.4,-17.3 0.3,-26.4 1.8,-4.5 -0.5,-8.2 -4.7,-11.7 l 43.7,18.4 c -13.3,-4.6 -13.2,11 -14,25 l 21.5,63.4 c 8.7,27.6 -32.6,39.7 -44.7,19.3 z"
         transform="translate(-151,-77)" />
      <path
         id="ID0.8629693244583905"
         fill="#010101"
         d="m 175.6,99.5 2.6,5.8 c -0.3,1 -21.4,6.8 -26.5,7.8 l 1,-2.3 c 3.1,-1.1 5.1,-3 6.2,-5.7 l 9,-3.8 2.5,0.4 z"
         transform="translate(-151,-77)" />
    </g>
    <g
       id="ID0.962657178286463">
      <g
         id="ID0.9797742199152708">
        <path
           id="ID0.37191724264994264"
           fill="#010101"
           d="m 240.3,123.6 c 0.855,0 1.63,0.403 2.191,1.055 0.562,0.652 0.909,1.552 0.909,2.545 0,0.993 -0.347,1.893 -0.909,2.545 -0.561,0.652 -1.336,1.055 -2.191,1.055 -0.855,0 -1.63,-0.403 -2.191,-1.055 -0.562,-0.652 -0.909,-1.552 -0.909,-2.545 0,-0.993 0.347,-1.893 0.909,-2.545 0.561,-0.652 1.336,-1.055 2.191,-1.055 z"
           transform="translate(-151,-77)" />
        <path
           id="ID0.5501194973476231"
           fill="#010101"
           d="m 244.3,132.9 c 1.186,0 2.261,0.515 3.04,1.348 0.778,0.833 1.26,1.983 1.26,3.252 0,1.269 -0.482,2.419 -1.26,3.252 -0.779,0.833 -1.854,1.348 -3.04,1.348 -1.186,0 -2.261,-0.515 -3.04,-1.348 -0.778,-0.833 -1.26,-1.983 -1.26,-3.252 0,-1.269 0.482,-2.419 1.26,-3.252 0.779,-0.833 1.854,-1.348 3.04,-1.348 z"
           transform="translate(-151,-77)" />
        <path
           id="ID0.8069596756249666"
           fill="#010101"
           d="m 249.7,144.1 c 1.104,0 2.104,0.527 2.828,1.377 0.724,0.851 1.172,2.026 1.172,3.323 0,1.297 -0.448,2.472 -1.172,3.323 -0.724,0.85 -1.724,1.377 -2.828,1.377 -1.104,0 -2.104,-0.527 -2.828,-1.377 -0.724,-0.851 -1.172,-2.026 -1.172,-3.323 0,-1.297 0.448,-2.472 1.172,-3.323 0.724,-0.85 1.724,-1.377 2.828,-1.377 z"
           transform="translate(-151,-77)" />
        <path
           id="ID0.7863359902985394"
           fill="#010101"
           d="m 254.4,155.5 c 1.159,0 2.209,0.515 2.969,1.348 0.76,0.833 1.231,1.983 1.231,3.252 0,1.269 -0.471,2.419 -1.231,3.252 -0.76,0.833 -1.81,1.348 -2.969,1.348 -1.159,0 -2.209,-0.515 -2.969,-1.348 -0.76,-0.833 -1.231,-1.983 -1.231,-3.252 0,-1.269 0.471,-2.419 1.231,-3.252 0.76,-0.833 1.81,-1.348 2.969,-1.348 z"
           transform="translate(-151,-77)" />
        <path
           id="ID0.5774883492849767"
           fill="#010101"
           d="m 259.5,169.7 c 0.855,0 1.63,0.392 2.191,1.026 0.562,0.633 0.909,1.508 0.909,2.474 0,0.966 -0.347,1.841 -0.909,2.474 -0.561,0.634 -1.336,1.026 -2.191,1.026 -0.855,0 -1.63,-0.392 -2.191,-1.026 -0.562,-0.633 -0.909,-1.508 -0.909,-2.474 0,-0.966 0.347,-1.841 0.909,-2.474 0.561,-0.634 1.336,-1.026 2.191,-1.026 z"
           transform="translate(-151,-77)" />
        <path
           id="ID0.58547995518893"
           fill="#010101"
           d="m 264.8,179 c 1.379,0 2.629,0.684 3.535,1.788 0.905,1.104 1.465,2.629 1.465,4.312 0,1.683 -0.56,3.208 -1.465,4.312 -0.906,1.104 -2.156,1.788 -3.535,1.788 -1.379,0 -2.629,-0.684 -3.535,-1.788 -0.905,-1.104 -1.465,-2.629 -1.465,-4.312 0,-1.683 0.56,-3.208 1.465,-4.312 0.906,-1.104 2.156,-1.788 3.535,-1.788 z"
           transform="translate(-151,-77)" />
        <path
           id="ID0.9809317123144865"
           fill="#010101"
           d="m 271.4,193.2 c 1.49,0 2.84,0.695 3.817,1.817 0.978,1.122 1.583,2.672 1.583,4.383 0,1.711 -0.605,3.261 -1.583,4.383 -0.977,1.122 -2.327,1.817 -3.817,1.817 -1.49,0 -2.84,-0.695 -3.817,-1.817 -0.978,-1.122 -1.583,-2.672 -1.583,-4.383 0,-1.711 0.605,-3.261 1.583,-4.383 0.977,-1.122 2.327,-1.817 3.817,-1.817 z"
           transform="translate(-151,-77)" />
        <path
           id="ID0.9812453608028591"
           fill="#010101"
           d="m 277.9,207.1 c 1.379,0 2.629,0.695 3.535,1.817 0.905,1.122 1.465,2.672 1.465,4.383 0,1.711 -0.56,3.261 -1.465,4.383 -0.906,1.122 -2.156,1.817 -3.535,1.817 -1.379,0 -2.629,-0.695 -3.535,-1.817 -0.905,-1.122 -1.465,-2.672 -1.465,-4.383 0,-1.711 0.56,-3.261 1.465,-4.383 0.906,-1.122 2.156,-1.817 3.535,-1.817 z"
           transform="translate(-151,-77)" />
        <path
           id="ID0.2332963915541768"
           fill="#010101"
           d="m 282,222 c 1.462,0 2.787,0.661 3.747,1.729 0.959,1.068 1.553,2.543 1.553,4.171 0,1.628 -0.594,3.103 -1.553,4.171 -0.96,1.068 -2.285,1.729 -3.747,1.729 -1.462,0 -2.787,-0.661 -3.747,-1.729 -0.959,-1.068 -1.553,-2.543 -1.553,-4.171 0,-1.628 0.594,-3.103 1.553,-4.171 0.96,-1.068 2.285,-1.729 3.747,-1.729 z"
           transform="translate(-151,-77)" />
        <path
           id="ID0.19221208291128278"
           fill="#010101"
           d="m 289.8,236.9 c 1.048,0 1.998,0.493 2.686,1.29 0.688,0.796 1.114,1.896 1.114,3.11 0,1.214 -0.426,2.314 -1.114,3.11 -0.688,0.797 -1.638,1.29 -2.686,1.29 -1.048,0 -1.998,-0.493 -2.686,-1.29 -0.688,-0.796 -1.114,-1.896 -1.114,-3.11 0,-1.214 0.426,-2.314 1.114,-3.11 0.688,-0.797 1.638,-1.29 2.686,-1.29 z"
           transform="translate(-151,-77)" />
      </g>
      <g
         id="ID0.9128440446220338">
        <path
           id="ID0.17361360881477594"
           fill="none"
           stroke="#000000"
           stroke-width="2"
           stroke-linecap="round"
           d="m 240.3,127.2 -5.2,2.8"
           transform="translate(-151,-77)" />
        <path
           id="ID0.18864145316183567"
           fill="none"
           stroke="#000000"
           stroke-width="2"
           stroke-linecap="round"
           d="m 243,138.6 -5.2,2.8"
           transform="translate(-151,-77)" />
        <path
           id="ID0.48024768149480224"
           fill="none"
           stroke="#000000"
           stroke-width="2"
           stroke-linecap="round"
           d="m 248.6,149.5 -5.1,2.8"
           transform="translate(-151,-77)" />
        <path
           id="ID0.14061235170811415"
           fill="none"
           stroke="#000000"
           stroke-width="2"
           stroke-linecap="round"
           d="m 252.8,161.3 -5.2,2.7"
           transform="translate(-151,-77)" />
        <path
           id="ID0.47746378323063254"
           fill="none"
           stroke="#000000"
           stroke-width="2"
           stroke-linecap="round"
           d="m 259.7,173.3 -5.2,2.8"
           transform="translate(-151,-77)" />
        <path
           id="ID0.28692360827699304"
           fill="none"
           stroke="#000000"
           stroke-width="2"
           stroke-linecap="round"
           d="m 263,186.8 -5.1,2.8"
           transform="translate(-151,-77)" />
        <path
           id="ID0.6715629645623267"
           fill="none"
           stroke="#000000"
           stroke-width="2"
           stroke-linecap="round"
           d="m 269.8,201.5 -5.2,2.8"
           transform="translate(-151,-77)" />
        <path
           id="ID0.3990946658886969"
           fill="none"
           stroke="#000000"
           stroke-width="2"
           stroke-linecap="round"
           d="m 276.2,214.9 -5.2,2.8"
           transform="translate(-151,-77)" />
        <path
           id="ID0.1374920061789453"
           fill="none"
           stroke="#000000"
           stroke-width="2"
           stroke-linecap="round"
           d="m 280.5,229.9 -5.2,2.8"
           transform="translate(-151,-77)" />
        <path
           id="ID0.8079830729402602"
           fill="none"
           stroke="#000000"
           stroke-width="2"
           stroke-linecap="round"
           d="m 289.7,242.6 -5.2,2.7"
           transform="translate(-151,-77)" />
      </g>
    </g>
  </g>
</svg>

<svg version="1.1" width="178" height="206" viewBox="-1 -1 178 206" xmlns="http://www.w3.org/2000/svg" xmlns:xlink="http://www.w3.org/1999/xlink">
  <!-- Exported by Scratch - http://scratch.mit.edu/ -->
  <g id="ID0.01297489507123828" transform="matrix(0.7737809419631958, 0, 0, 0.7737809419631958, 0.15, 0.2)">
    <g id="ID0.3204571665264666">
      <path id="ID0.38248061342164874" fill="#FBD43F" d="M 282.300 272.100 C 282.300 272.100 214.900 90.500 214.200 89.200 C 213.600 87.900 211.700 86 208.300 85.900 C 201.700 86.200 197.300 89.700 193.800 94.600 C 189.200 100.100 183.700 103.300 177.600 104.600 L 175.600 100.400 C 177.900 99.900 180.400 98.900 182.900 97.100 C 187 94.700 191.300 90.100 195.800 84.600 C 204.700 76.900 213.500 73.800 221.800 85.900 C 221.800 85.900 293.700 255.900 297.900 258.500 C 303.200 261.700 305.800 260.100 306.200 254.200 C 296.900 233.100 286.400 210.500 280.200 184.100 C 278.800 175.600 278.800 166.800 280.500 157.700 C 282.300 153.200 280 149.500 275.800 146 L 319.500 164.400 C 306.200 159.800 306.300 175.400 305.500 189.400 L 327 252.800 C 335.700 280.400 294.400 292.500 282.300 272.100 Z " transform="matrix(1, 0, 0, 1, -151, -77)"/>
      <path id="ID0.8629693244583905" fill="#010101" d="M 175.600 99.500 L 178.200 105.300 C 177.900 106.300 156.800 112.100 151.700 113.100 L 152.700 110.800 C 155.800 109.700 157.800 107.800 158.900 105.100 L 167.900 101.300 L 170.400 101.700 L 175.600 99.500 Z " transform="matrix(1, 0, 0, 1, -151, -77)"/>
    </g>
    <g id="ID0.962657178286463">
      <g id="ID0.9797742199152708">
        <path id="ID0.37191724264994264" fill="#010101" d="M 240.300 123.600 C 241.155 123.600 241.930 124.003 242.491 124.655 C 243.053 125.307 243.400 126.207 243.400 127.200 C 243.400 128.193 243.053 129.093 242.491 129.745 C 241.930 130.397 241.155 130.800 240.300 130.800 C 239.445 130.800 238.670 130.397 238.109 129.745 C 237.547 129.093 237.200 128.193 237.200 127.200 C 237.200 126.207 237.547 125.307 238.109 124.655 C 238.670 124.003 239.445 123.600 240.300 123.600 Z " transform="matrix(1, 0, 0, 1, -151, -77)"/>
        <path id="ID0.5501194973476231" fill="#010101" d="M 244.300 132.900 C 245.486 132.900 246.561 133.415 247.340 134.248 C 248.118 135.081 248.600 136.231 248.600 137.500 C 248.600 138.769 248.118 139.919 247.340 140.752 C 246.561 141.585 245.486 142.100 244.300 142.100 C 243.114 142.100 242.039 141.585 241.260 140.752 C 240.482 139.919 240 138.769 240 137.500 C 240 136.231 240.482 135.081 241.260 134.248 C 242.039 133.415 243.114 132.900 244.300 132.900 Z " transform="matrix(1, 0, 0, 1, -151, -77)"/>
        <path id="ID0.8069596756249666" fill="#010101" d="M 249.700 144.100 C 250.804 144.100 251.804 144.627 252.528 145.477 C 253.252 146.328 253.700 147.503 253.700 148.800 C 253.700 150.097 253.252 151.272 252.528 152.123 C 251.804 152.973 250.804 153.500 249.700 153.500 C 248.596 153.500 247.596 152.973 246.872 152.123 C 246.148 151.272 245.700 150.097 245.700 148.800 C 245.700 147.503 246.148 146.328 246.872 145.477 C 247.596 144.627 248.596 144.100 249.700 144.100 Z " transform="matrix(1, 0, 0, 1, -151, -77)"/>
        <path id="ID0.7863359902985394" fill="#010101" d="M 254.400 155.500 C 255.559 155.500 256.609 156.015 257.369 156.848 C 258.129 157.681 258.600 158.831 258.600 160.100 C 258.600 161.369 258.129 162.519 257.369 163.352 C 256.609 164.185 255.559 164.700 254.400 164.700 C 253.241 164.700 252.191 164.185 251.431 163.352 C 250.671 162.519 250.200 161.369 250.200 160.100 C 250.200 158.831 250.671 157.681 251.431 156.848 C 252.191 156.015 253.241 155.500 254.400 155.500 Z " transform="matrix(1, 0, 0, 1, -151, -77)"/>
        <path id="ID0.5774883492849767" fill="#010101" d="M 259.500 169.700 C 260.355 169.700 261.130 170.092 261.691 170.726 C 262.253 171.359 262.600 172.234 262.600 173.200 C 262.600 174.166 262.253 175.041 261.691 175.674 C 261.130 176.308 260.355 176.700 259.500 176.700 C 258.645 176.700 257.870 176.308 257.309 175.674 C 256.747 175.041 256.400 174.166 256.400 173.200 C 256.400 172.234 256.747 171.359 257.309 170.726 C 257.870 170.092 258.645 169.700 259.500 169.700 Z " transform="matrix(1, 0, 0, 1, -151, -77)"/>
        <path id="ID0.58547995518893" fill="#010101" d="M 264.800 179 C 266.179 179 267.429 179.684 268.335 180.788 C 269.240 181.892 269.800 183.417 269.800 185.100 C 269.800 186.783 269.240 188.308 268.335 189.412 C 267.429 190.516 266.179 191.200 264.800 191.200 C 263.421 191.200 262.171 190.516 261.265 189.412 C 260.360 188.308 259.800 186.783 259.800 185.100 C 259.800 183.417 260.360 181.892 261.265 180.788 C 262.171 179.684 263.421 179 264.800 179 Z " transform="matrix(1, 0, 0, 1, -151, -77)"/>
        <path id="ID0.9809317123144865" fill="#010101" d="M 271.400 193.200 C 272.890 193.200 274.240 193.895 275.217 195.017 C 276.195 196.139 276.800 197.689 276.800 199.400 C 276.800 201.111 276.195 202.661 275.217 203.783 C 274.240 204.905 272.890 205.600 271.400 205.600 C 269.910 205.600 268.560 204.905 267.583 203.783 C 266.605 202.661 266 201.111 266 199.400 C 266 197.689 266.605 196.139 267.583 195.017 C 268.560 193.895 269.910 193.200 271.400 193.200 Z " transform="matrix(1, 0, 0, 1, -151, -77)"/>
        <path id="ID0.9812453608028591" fill="#010101" d="M 277.900 207.100 C 279.279 207.100 280.529 207.795 281.435 208.917 C 282.340 210.039 282.900 211.589 282.900 213.300 C 282.900 215.011 282.340 216.561 281.435 217.683 C 280.529 218.805 279.279 219.500 277.900 219.500 C 276.521 219.500 275.271 218.805 274.365 217.683 C 273.460 216.561 272.900 215.011 272.900 213.300 C 272.900 211.589 273.460 210.039 274.365 208.917 C 275.271 207.795 276.521 207.100 277.900 207.100 Z " transform="matrix(1, 0, 0, 1, -151, -77)"/>
        <path id="ID0.2332963915541768" fill="#010101" d="M 282 222 C 283.462 222 284.787 222.661 285.747 223.729 C 286.706 224.797 287.300 226.272 287.300 227.900 C 287.300 229.528 286.706 231.003 285.747 232.071 C 284.787 233.139 283.462 233.800 282 233.800 C 280.538 233.800 279.213 233.139 278.253 232.071 C 277.294 231.003 276.700 229.528 276.700 227.900 C 276.700 226.272 277.294 224.797 278.253 223.729 C 279.213 222.661 280.538 222 282 222 Z " transform="matrix(1, 0, 0, 1, -151, -77)"/>
        <path id="ID0.19221208291128278" fill="#010101" d="M 289.800 236.900 C 290.848 236.900 291.798 237.393 292.486 238.190 C 293.174 238.986 293.600 240.086 293.600 241.300 C 293.600 242.514 293.174 243.614 292.486 244.410 C 291.798 245.207 290.848 245.700 289.800 245.700 C 288.752 245.700 287.802 245.207 287.114 244.410 C 286.426 243.614 286 242.514 286 241.300 C 286 240.086 286.426 238.986 287.114 238.190 C 287.802 237.393 288.752 236.900 289.800 236.900 Z " transform="matrix(1, 0, 0, 1, -151, -77)"/>
      </g>
      <g id="ID0.9128440446220338">
        <path id="ID0.17361360881477594" fill="none" stroke="#000000" stroke-width="2" stroke-linecap="round" d="M 240.300 127.200 L 235.100 130 " transform="matrix(1, 0, 0, 1, -151, -77)"/>
        <path id="ID0.18864145316183567" fill="none" stroke="#000000" stroke-width="2" stroke-linecap="round" d="M 243 138.600 L 237.800 141.400 " transform="matrix(1, 0, 0, 1, -151, -77)"/>
        <path id="ID0.48024768149480224" fill="none" stroke="#000000" stroke-width="2" stroke-linecap="round" d="M 248.600 149.500 L 243.500 152.300 " transform="matrix(1, 0, 0, 1, -151, -77)"/>
        <path id="ID0.14061235170811415" fill="none" stroke="#000000" stroke-width="2" stroke-linecap="round" d="M 252.800 161.300 L 247.600 164 " transform="matrix(1, 0, 0, 1, -151, -77)"/>
        <path id="ID0.47746378323063254" fill="none" stroke="#000000" stroke-width="2" stroke-linecap="round" d="M 259.700 173.300 L 254.500 176.100 " transform="matrix(1, 0, 0, 1, -151, -77)"/>
        <path id="ID0.28692360827699304" fill="none" stroke="#000000" stroke-width="2" stroke-linecap="round" d="M 263 186.800 L 257.900 189.600 " transform="matrix(1, 0, 0, 1, -151, -77)"/>
        <path id="ID0.6715629645623267" fill="none" stroke="#000000" stroke-width="2" stroke-linecap="round" d="M 269.800 201.500 L 264.600 204.300 " transform="matrix(1, 0, 0, 1, -151, -77)"/>
        <path id="ID0.3990946658886969" fill="none" stroke="#000000" stroke-width="2" stroke-linecap="round" d="M 276.200 214.900 L 271 217.700 " transform="matrix(1, 0, 0, 1, -151, -77)"/>
        <path id="ID0.1374920061789453" fill="none" stroke="#000000" stroke-width="2" stroke-linecap="round" d="M 280.500 229.900 L 275.300 232.700 " transform="matrix(1, 0, 0, 1, -151, -77)"/>
        <path id="ID0.8079830729402602" fill="none" stroke="#000000" stroke-width="2" stroke-linecap="round" d="M 289.700 242.600 L 284.500 245.300 " transform="matrix(1, 0, 0, 1, -151, -77)"/>
      </g>
    </g>
  </g>
</svg>
